X: 269a
T: Munster Buttermilk
R:Jig
M:6/8
L:1/8
K:D
A|"D"def "G"edB|"D"A2F FEF|A2F FEF|AFD DFA|
"D"def "G" edB|"D"A2F FEF|AFD DEF|"A"EDC "D"D2:|
B|"D"A2B d2e|fgf fed|"G(Em)"efe edB|"D"ded "G"edB|
"D"A2B d2e|fgf fed|"G"edB "D"ABd|"A" edc "D"d2:|


